; HEADER_BLOCK_START
; generated by OrcaSlicer 2.3.1 on 2026-02-07 at 11:09:12
; total layer number: 218
; filament_density: 1.24
; filament_diameter: 1.75
; max_z_height: 52.62
; HEADER_BLOCK_END

; THUMBNAIL_BLOCK_START

;
; THUMBNAIL_BLOCK_END

; THUMBNAIL_BLOCK_START

;
; THUMBNAIL_BLOCK_END

; external perimeters extrusion width = 0.40mm
; perimeters extrusion width = 0.42mm
; infill extrusion width = 0.42mm
; solid infill extrusion width = 0.42mm
; top infill extrusion width = 0.40mm
; first layer extrusion width = 0.50mm

; external perimeters extrusion width = 0.40mm
; perimeters extrusion width = 0.42mm
; infill extrusion width = 0.42mm
; solid infill extrusion width = 0.42mm
; top infill extrusion width = 0.40mm
; first layer extrusion width = 0.50mm

; external perimeters extrusion width = 0.40mm
; perimeters extrusion width = 0.42mm
; infill extrusion width = 0.42mm
; solid infill extrusion width = 0.42mm
; top infill extrusion width = 0.40mm
; first layer extrusion width = 0.50mm

; EXECUTABLE_BLOCK_START
EXCLUDE_OBJECT_DEFINE NAME=Cone_id_0_copy_0 CENTER=25.5899,-4.15781 POLYGON=[[-0.77212,-4.61797],[-0.740003,-5.53771],[-0.675805,-6.45577],[-0.579608,-7.37103],[-0.451527,-8.28237],[-0.291718,-9.18869],[-0.100376,-10.0889],[0.122265,-10.9818],[0.375935,-11.8665],[0.660323,-12.7417],[0.975085,-13.6065],[1.31983,-14.4598],[1.69415,-15.3006],[2.09759,-16.1277],[2.52964,-16.9403],[2.98979,-17.7373],[3.47748,-18.5178],[3.99211,-19.2807],[4.53304,-20.0253],[5.09964,-20.7505],[5.6912,-21.4555],[6.307,-22.1394],[6.94629,-22.8014],[7.6083,-23.4407],[8.29222,-24.0565],[8.99721,-24.648],[9.72241,-25.2146],[10.467,-25.7556],[11.2299,-26.2702],[12.0104,-26.7579],[12.8074,-27.218],[13.62,-27.6501],[14.4471,-28.0535],[15.2879,-28.4278],[16.1411,-28.7726],[17.0059,-29.0873],[17.8812,-29.3717],[18.7658,-29.6254],[19.6588,-29.848],[20.559,-30.0394],[21.4653,-30.1992],[22.3767,-30.3273],[23.2919,-30.4235],[24.21,-30.4877],[25.1297,-30.5198],[26.05,-30.5198],[26.9698,-30.4877],[27.8878,-30.4235],[28.8031,-30.3273],[29.7144,-30.1992],[30.6207,-30.0394],[31.5209,-29.848],[32.4139,-29.6254],[33.2985,-29.3717],[34.1738,-29.0873],[35.0386,-28.7726],[35.8919,-28.4278],[36.7326,-28.0535],[37.5598,-27.6501],[38.3723,-27.218],[39.1694,-26.7579],[39.9498,-26.2702],[40.7128,-25.7556],[41.4573,-25.2146],[42.1825,-24.648],[42.8875,-24.0565],[43.5714,-23.4407],[44.2334,-22.8014],[44.8727,-22.1394],[45.4885,-21.4554],[46.0801,-20.7505],[46.6467,-20.0253],[47.1876,-19.2807],[47.7022,-18.5177],[48.1899,-17.7373],[48.6501,-16.9403],[49.0821,-16.1277],[49.4856,-15.3005],[49.8599,-14.4598],[50.2046,-13.6065],[50.5194,-12.7417],[50.8038,-11.8665],[51.0574,-10.9818],[51.2801,-10.0889],[51.4714,-9.18867],[51.6312,-8.28235],[51.7593,-7.371],[51.8555,-6.45575],[51.9197,-5.53769],[51.9518,-4.61795],[51.9518,-3.69765],[51.9197,-2.77791],[51.8555,-1.85985],[51.7593,-0.944593],[51.6312,-0.03325],[51.4714,0.873069],[51.2801,1.77326],[51.0574,2.66622],[50.8038,3.55087],[50.5194,4.42613],[50.2046,5.29093],[49.8599,6.14421],[49.4856,6.98495],[49.0821,7.81211],[48.6501,8.62468],[48.1899,9.42169],[47.7022,10.2021],[47.1876,10.9651],[46.6467,11.7096],[46.0801,12.4349],[45.4885,13.1398],[44.8727,13.8238],[44.2334,14.4858],[43.5714,15.1251],[42.8875,15.7409],[42.1825,16.3324],[41.4573,16.899],[40.7128,17.44],[39.9498,17.9546],[39.1693,18.4423],[38.3723,18.9024],[37.5598,19.3345],[36.7326,19.7379],[35.8919,20.1122],[35.0386,20.457],[34.1738,20.7717],[33.2985,21.0561],[32.4139,21.3098],[31.5209,21.5324],[30.6207,21.7238],[29.7144,21.8836],[28.803,22.0117],[27.8878,22.1078],[26.9697,22.172],[26.05,22.2042],[25.1297,22.2042],[24.21,22.172],[23.2919,22.1078],[22.3766,22.0117],[21.4653,21.8836],[20.559,21.7238],[19.6588,21.5324],[18.7658,21.3098],[17.8812,21.0561],[17.0059,20.7717],[16.1411,20.457],[15.2878,20.1122],[14.4471,19.7379],[13.6199,19.3345],[12.8074,18.9024],[12.0104,18.4422],[11.2299,17.9546],[10.4669,17.4399],[9.7224,16.899],[8.99719,16.3324],[8.2922,15.7408],[7.60828,15.125],[6.94628,14.4858],[6.30698,13.8237],[5.69118,13.1398],[5.09962,12.4348],[4.53303,11.7096],[3.99209,10.9651],[3.47747,10.2021],[2.98978,9.42167],[2.52963,8.62467],[2.09758,7.81209],[1.69415,6.98493],[1.31983,6.14419],[0.975076,5.2909],[0.660316,4.4261],[0.375928,3.55085],[0.122259,2.6662],[-0.100381,1.77323],[-0.291721,0.873045],[-0.451531,-0.033274],[-0.57961,-0.944617],[-0.675807,-1.85987],[-0.740003,-2.77793],[-0.77212,-3.69767],[-0.77212,-4.61797]]
EXCLUDE_OBJECT_DEFINE NAME=Cube_id_1_copy_0 CENTER=-36.362,6.61432 POLYGON=[[-51.9518,-8.97553],[-20.7721,-8.97553],[-20.7721,22.2042],[-51.9518,22.2042],[-51.9518,-8.97553]]
EXCLUDE_OBJECT_DEFINE NAME=Cylinder_id_2_copy_0 CENTER=-22.6489,-47.3899 POLYGON=[[-41.0633,-47.7113],[-41.0408,-48.3537],[-40.996,-48.995],[-40.9288,-49.6343],[-40.8393,-50.2709],[-40.7277,-50.904],[-40.594,-51.5328],[-40.4385,-52.1566],[-40.2613,-52.7745],[-40.0627,-53.3859],[-39.8428,-53.99],[-39.602,-54.586],[-39.3405,-55.1733],[-39.0587,-55.7511],[-38.7569,-56.3187],[-38.4355,-56.8754],[-38.0948,-57.4205],[-37.7354,-57.9535],[-37.3575,-58.4736],[-36.9617,-58.9801],[-36.5485,-59.4726],[-36.1184,-59.9503],[-35.6718,-60.4127],[-35.2094,-60.8593],[-34.7317,-61.2894],[-34.2392,-61.7027],[-33.7326,-62.0984],[-33.2126,-62.4763],[-32.6796,-62.8358],[-32.1345,-63.1764],[-31.5777,-63.4978],[-31.0101,-63.7996],[-30.4323,-64.0814],[-29.8451,-64.3429],[-29.249,-64.5837],[-28.645,-64.8036],[-28.0336,-65.0022],[-27.4156,-65.1794],[-26.7919,-65.3349],[-26.1631,-65.4686],[-25.53,-65.5802],[-24.8934,-65.6697],[-24.2541,-65.7369],[-23.6128,-65.7817],[-22.9704,-65.8042],[-22.3275,-65.8042],[-21.6851,-65.7817],[-21.0438,-65.7369],[-20.4045,-65.6697],[-19.7679,-65.5802],[-19.1348,-65.4686],[-18.506,-65.3349],[-17.8822,-65.1794],[-17.2643,-65.0022],[-16.6529,-64.8036],[-16.0488,-64.5837],[-15.4528,-64.3429],[-14.8655,-64.0814],[-14.2877,-63.7996],[-13.7201,-63.4978],[-13.1634,-63.1764],[-12.6182,-62.8357],[-12.0853,-62.4763],[-11.5652,-62.0984],[-11.0587,-61.7026],[-10.5662,-61.2894],[-10.0885,-60.8593],[-9.62606,-60.4127],[-9.1795,-59.9503],[-8.74936,-59.4726],[-8.33615,-58.9801],[-7.94037,-58.4735],[-7.56251,-57.9535],[-7.20304,-57.4205],[-6.86238,-56.8754],[-6.54096,-56.3186],[-6.23916,-55.751],[-5.95736,-55.1733],[-5.69589,-54.586],[-5.45507,-53.99],[-5.23521,-53.3859],[-5.03656,-52.7745],[-4.85937,-52.1565],[-4.70385,-51.5328],[-4.57019,-50.904],[-4.45856,-50.2709],[-4.3691,-49.6343],[-4.3019,-48.995],[-4.25706,-48.3537],[-4.23463,-47.7113],[-4.23463,-47.0684],[-4.25706,-46.426],[-4.3019,-45.7847],[-4.3691,-45.1454],[-4.45857,-44.5088],[-4.5702,-43.8757],[-4.70385,-43.2469],[-4.85937,-42.6231],[-5.03656,-42.0052],[-5.23522,-41.3938],[-5.45508,-40.7897],[-5.6959,-40.1937],[-5.95737,-39.6064],[-6.23917,-39.0286],[-6.54097,-38.461],[-6.86239,-37.9043],[-7.20305,-37.3592],[-7.56253,-36.8262],[-7.94038,-36.3061],[-8.33616,-35.7996],[-8.74937,-35.3071],[-9.17952,-34.8294],[-9.62608,-34.367],[-10.0885,-33.9204],[-10.5662,-33.4903],[-11.0587,-33.0771],[-11.5653,-32.6813],[-12.0853,-32.3034],[-12.6183,-31.9439],[-13.1634,-31.6033],[-13.7202,-31.2819],[-14.2878,-30.9801],[-14.8655,-30.6983],[-15.4528,-30.4368],[-16.0488,-30.196],[-16.6529,-29.9761],[-17.2643,-29.7775],[-17.8823,-29.6003],[-18.506,-29.4448],[-19.1348,-29.3111],[-19.7679,-29.1995],[-20.4045,-29.11],[-21.0438,-29.0428],[-21.6851,-28.998],[-22.3275,-28.9755],[-22.9704,-28.9755],[-23.6128,-28.998],[-24.2541,-29.0428],[-24.8934,-29.11],[-25.53,-29.1995],[-26.1631,-29.3111],[-26.7919,-29.4448],[-27.4157,-29.6003],[-28.0336,-29.7775],[-28.645,-29.9761],[-29.2491,-30.196],[-29.8451,-30.4368],[-30.4324,-30.6983],[-31.0102,-30.9801],[-31.5778,-31.2819],[-32.1345,-31.6033],[-32.6796,-31.944],[-33.2126,-32.3034],[-33.7327,-32.6813],[-34.2392,-33.0771],[-34.7317,-33.4903],[-35.2094,-33.9204],[-35.6718,-34.367],[-36.1184,-34.8294],[-36.5485,-35.3071],[-36.9617,-35.7996],[-37.3575,-36.3062],[-37.7354,-36.8262],[-38.0949,-37.3592],[-38.4355,-37.9043],[-38.7569,-38.4611],[-39.0587,-39.0287],[-39.3405,-39.6064],[-39.602,-40.1937],[-39.8428,-40.7898],[-40.0627,-41.3938],[-40.2613,-42.0052],[-40.4385,-42.6232],[-40.594,-43.2469],[-40.7277,-43.8757],[-40.8393,-44.5088],[-40.9288,-45.1454],[-40.996,-45.7847],[-41.0408,-46.426],[-41.0633,-47.0684],[-41.0633,-47.7113]]
M73 P0 R45
M106 S0
M106 P2 S0
;TYPE:Custom
SET_PRINT_STATS_INFO TOTAL_LAYER=219 CURRENT_LAYER=0
M190 S55
M104 S220
KAMP_DEFINE_AREA MIN=-53.9518,-67.8042 MAX=53.8768,24.2042
START_PRINT EXTRUDER_TEMP=220 BED_TEMP=55 MESH=PLA_mesh

G90
G21
M83 ; use relative distances for extrusion
; filament start gcode
;right_extruder_material: PLA
SET_PRESSURE_ADVANCE ADVANCE=0.03; Override pressure advance value
M106 S0
M106 P2 S0
;LAYER_CHANGE
;Z:0.3
;HEIGHT:0.3
;BEFORE_LAYER_CHANGE
;0.3
G1 E-.8 F2100
TIMELAPSE_TAKE_FRAME
;AFTER_LAYER_CHANGE
;0.3
SET_PRINT_STATS_INFO CURRENT_LAYER=1
M117 Layer 1/219 : Elegoo Rapid PLA+ @FlashForge
;_SET_FAN_SPEED_CHANGING_LAYER
SET_VELOCITY_LIMIT ACCEL=500
; printing object Cone id:0 copy 0
EXCLUDE_OBJECT_START NAME=Cone_id_0_copy_0
G1 X29.562 Y20.92 F30000
G1 Z.7
G1 Z.3
G1 E.8 F2100
;TYPE:Inner wall
;WIDTH:0.5
G1 F3000
G1 X28.684 Y21.044 E.04718
G1 X27.803 Y21.136 E.04719
G1 X26.919 Y21.198 E.04719
G1 X26.033 Y21.229 E.04719
G1 X25.147 Y21.229 E.04719
G1 X24.261 Y21.198 E.04719
G1 X23.377 Y21.136 E.04719
G1 X22.495 Y21.044 E.04719
G1 X21.618 Y20.92 E.04719
G1 X20.745 Y20.767 E.04719
G1 X19.878 Y20.582 E.04719
G1 X19.018 Y20.368 E.04719
G1 X18.166 Y20.124 E.04719
G1 X17.323 Y19.85 E.04719
G1 X16.491 Y19.547 E.04719
G1 X15.669 Y19.215 E.04719
G1 X14.859 Y18.854 E.04719
G1 X14.063 Y18.466 E.04719
G1 X13.28 Y18.05 E.04719
G1 X12.513 Y17.606 E.04719
G1 X11.761 Y17.137 E.04719
G1 X11.026 Y16.641 E.04719
G1 X10.309 Y16.12 E.04719
G1 X9.611 Y15.575 E.04719
G1 X8.932 Y15.005 E.04719
G1 X8.273 Y14.412 E.04719
G1 X7.636 Y13.796 E.04719
G1 X7.02 Y13.159 E.04719
G1 X6.427 Y12.5 E.04719
G1 X5.857 Y11.821 E.04719
G1 X5.312 Y11.123 E.04719
G1 X4.791 Y10.406 E.04719
G1 X4.295 Y9.671 E.04719
G1 X3.826 Y8.919 E.04719
G1 X3.383 Y8.152 E.04719
G1 X2.966 Y7.369 E.04719
G1 X2.578 Y6.573 E.04719
G1 X2.217 Y5.763 E.04719
G1 X1.885 Y4.941 E.04719
G1 X1.582 Y4.109 E.04719
G1 X1.308 Y3.266 E.04719
G1 X1.064 Y2.414 E.04719
G1 X.85 Y1.554 E.04719
G1 X.666 Y.687 E.04719
G1 X.512 Y-.186 E.04719
G1 X.388 Y-1.063 E.04718
G1 X.296 Y-1.945 E.04719
G1 X.234 Y-2.829 E.04719
G1 X.203 Y-3.715 E.04719
G1 X.203 Y-4.601 E.04719
G1 X.234 Y-5.487 E.04719
G1 X.296 Y-6.371 E.04719
G1 X.388 Y-7.252 E.04719
G1 X.512 Y-8.13 E.04719
G1 X.666 Y-9.003 E.04719
G1 X.85 Y-9.87 E.04719
G1 X1.064 Y-10.729 E.04719
G1 X1.308 Y-11.581 E.04719
G1 X1.582 Y-12.424 E.04719
G1 X1.885 Y-13.257 E.04719
G1 X2.217 Y-14.079 E.04719
G1 X2.578 Y-14.888 E.04719
G1 X2.966 Y-15.685 E.04719
G1 X3.383 Y-16.468 E.04719
G1 X3.826 Y-17.235 E.04719
G1 X4.295 Y-17.987 E.04719
G1 X4.791 Y-18.721 E.04719
G1 X5.312 Y-19.438 E.04719
G1 X5.857 Y-20.137 E.04719
G1 X6.427 Y-20.816 E.04719
G1 X7.02 Y-21.474 E.04719
G1 X7.636 Y-22.112 E.04719
G1 X8.273 Y-22.728 E.04719
G1 X8.932 Y-23.321 E.04719
G1 X9.611 Y-23.89 E.04719
G1 X10.309 Y-24.436 E.04719
G1 X11.026 Y-24.957 E.04719
G1 X11.761 Y-25.452 E.04719
G1 X12.513 Y-25.922 E.04719
G1 X13.28 Y-26.365 E.04719
G1 X14.063 Y-26.781 E.04719
G1 X14.859 Y-27.17 E.04719
G1 X15.669 Y-27.53 E.04719
G1 X16.491 Y-27.862 E.04719
G1 X17.323 Y-28.165 E.04719
G1 X18.166 Y-28.439 E.04719
G1 X19.018 Y-28.683 E.04719
G1 X19.878 Y-28.898 E.04719
G1 X20.745 Y-29.082 E.04719
G1 X21.618 Y-29.236 E.04719
G1 X22.495 Y-29.359 E.04718
G1 X23.377 Y-29.452 E.04719
G1 X24.261 Y-29.514 E.04719
G1 X25.147 Y-29.545 E.04719
G1 X26.033 Y-29.545 E.04719
G1 X26.919 Y-29.514 E.04719
G1 X27.803 Y-29.452 E.04719
G1 X28.684 Y-29.359 E.04719
G1 X29.562 Y-29.236 E.04719
G1 X30.435 Y-29.082 E.04719
G1 X31.302 Y-28.898 E.04719
G1 X32.162 Y-28.683 E.04719
G1 X33.013 Y-28.439 E.04719
G1 X33.856 Y-28.165 E.04719
G1 X34.689 Y-27.862 E.04719
G1 X35.511 Y-27.53 E.04719
G1 X36.321 Y-27.17 E.04719
G1 X37.117 Y-26.781 E.04719
G1 X37.9 Y-26.365 E.04719
G1 X38.667 Y-25.922 E.04719
G1 X39.419 Y-25.452 E.04719
G1 X40.153 Y-24.957 E.04719
G1 X40.87 Y-24.436 E.04719
G1 X41.569 Y-23.89 E.04719
G1 X42.248 Y-23.321 E.04719
G1 X42.906 Y-22.728 E.04719
G1 X43.544 Y-22.112 E.04719
G1 X44.16 Y-21.474 E.04719
G1 X44.753 Y-20.816 E.04719
G1 X45.322 Y-20.137 E.04719
G1 X45.868 Y-19.438 E.04719
G1 X46.389 Y-18.721 E.04719
G1 X46.884 Y-17.987 E.04719
G1 X47.354 Y-17.235 E.04719
G1 X47.797 Y-16.468 E.04719
G1 X48.213 Y-15.685 E.04719
G1 X48.602 Y-14.888 E.04719
G1 X48.962 Y-14.079 E.04719
G1 X49.294 Y-13.257 E.04719
G1 X49.597 Y-12.424 E.04719
G1 X49.871 Y-11.581 E.04719
G1 X50.116 Y-10.729 E.04719
G1 X50.33 Y-9.869 E.04719
G1 X50.514 Y-9.003 E.04719
G1 X50.668 Y-8.13 E.04719
G1 X50.791 Y-7.252 E.04718
G1 X50.884 Y-6.371 E.04719
G1 X50.946 Y-5.487 E.04719
G1 X50.977 Y-4.601 E.04719
G1 X50.977 Y-3.715 E.04719
G1 X50.946 Y-2.829 E.04719
G1 X50.884 Y-1.945 E.04719
G1 X50.791 Y-1.063 E.04719
G1 X50.668 Y-.186 E.04719
G1 X50.514 Y.687 E.04719
G1 X50.33 Y1.554 E.04719
G1 X50.116 Y2.414 E.04719
G1 X49.871 Y3.266 E.04719
G1 X49.597 Y4.109 E.04719
G1 X49.294 Y4.941 E.04719
G1 X48.962 Y5.763 E.04719
G1 X48.602 Y6.573 E.04719
G1 X48.213 Y7.369 E.04719
G1 X47.797 Y8.152 E.04719
G1 X47.354 Y8.919 E.04719
G1 X46.884 Y9.671 E.04719
G1 X46.389 Y10.406 E.04719
G1 X45.868 Y11.123 E.04719
G1 X45.322 Y11.821 E.04719
G1 X44.753 Y12.5 E.04719
G1 X44.16 Y13.159 E.04719
G1 X43.544 Y13.796 E.04719
G1 X42.906 Y14.412 E.04719
G1 X42.248 Y15.005 E.04719
G1 X41.569 Y15.575 E.04719
G1 X40.87 Y16.12 E.04719
G1 X40.153 Y16.641 E.04719
G1 X39.419 Y17.137 E.04719
G1 X38.667 Y17.606 E.04719
G1 X37.9 Y18.05 E.04719
G1 X37.117 Y18.466 E.04719
G1 X36.32 Y18.854 E.04719
G1 X35.511 Y19.215 E.04719
G1 X34.689 Y19.547 E.04719
G1 X33.856 Y19.85 E.04719
G1 X33.013 Y20.124 E.04719
G1 X32.162 Y20.368 E.04719
G1 X31.302 Y20.582 E.04719
G1 X30.435 Y20.767 E.04719
G1 X29.601 Y20.914 E.04507
G1 X29.64 Y21.414 F30000
;TYPE:Outer wall
G1 F3000
G1 X28.745 Y21.54 E.04812
G1 X27.846 Y21.635 E.04812
G1 X26.945 Y21.698 E.04812
G1 X26.042 Y21.729 E.04812
G1 X25.138 Y21.729 E.04812
G1 X24.235 Y21.698 E.04812
M73 P0 R44
G1 X23.333 Y21.635 E.04812
G1 X22.435 Y21.54 E.04812
G1 X21.54 Y21.414 E.04812
G1 X20.65 Y21.257 E.04812
G1 X19.766 Y21.07 E.04812
G1 X18.889 Y20.851 E.04812
G1 X18.02 Y20.602 E.04812
G1 X17.161 Y20.323 E.04812
G1 X16.311 Y20.013 E.04812
G1 X15.473 Y19.675 E.04812
G1 X14.648 Y19.307 E.04812
G1 X13.836 Y18.911 E.04812
G1 X13.038 Y18.487 E.04812
G1 X12.255 Y18.035 E.04812
G1 X11.489 Y17.556 E.04812
G1 X10.739 Y17.051 E.04812
G1 X10.008 Y16.52 E.04812
G1 X9.296 Y15.963 E.04812
G1 X8.604 Y15.382 E.04812
G1 X7.932 Y14.778 E.04812
G1 X7.282 Y14.15 E.04812
G1 X6.654 Y13.5 E.04812
G1 X6.05 Y12.828 E.04812
G1 X5.469 Y12.136 E.04812
G1 X4.912 Y11.424 E.04812
G1 X4.381 Y10.693 E.04812
G1 X3.876 Y9.943 E.04812
G1 X3.397 Y9.177 E.04812
G1 X2.945 Y8.394 E.04812
G1 X2.521 Y7.596 E.04812
G1 X2.125 Y6.784 E.04812
G1 X1.757 Y5.959 E.04812
G1 X1.419 Y5.121 E.04812
G1 X1.109 Y4.271 E.04812
G1 X.83 Y3.412 E.04812
G1 X.581 Y2.543 E.04812
G1 X.363 Y1.666 E.04812
G1 X.175 Y.782 E.04812
G1 X.018 Y-.108 E.04812
G1 X-.108 Y-1.002 E.04812
G1 X-.203 Y-1.901 E.04812
G1 X-.266 Y-2.803 E.04812
G1 X-.297 Y-3.706 E.04812
G1 X-.297 Y-4.61 E.04812
G1 X-.266 Y-5.513 E.04812
G1 X-.203 Y-6.414 E.04812
G1 X-.108 Y-7.313 E.04812
G1 X.018 Y-8.208 E.04812
G1 X.175 Y-9.098 E.04812
G1 X.363 Y-9.982 E.04812
G1 X.581 Y-10.859 E.04812
G1 X.83 Y-11.728 E.04812
G1 X1.11 Y-12.587 E.04812
G1 X1.419 Y-13.436 E.04812
G1 X1.757 Y-14.274 E.04812
G1 X2.125 Y-15.1 E.04812
G1 X2.521 Y-15.912 E.04812
G1 X2.945 Y-16.71 E.04812
G1 X3.397 Y-17.493 E.04812
G1 X3.876 Y-18.259 E.04812
G1 X4.381 Y-19.008 E.04812
G1 X4.912 Y-19.739 E.04812
G1 X5.469 Y-20.452 E.04812
G1 X6.05 Y-21.144 E.04812
G1 X6.654 Y-21.815 E.04812
G1 X7.282 Y-22.466 E.04812
G1 X7.932 Y-23.093 E.04812
G1 X8.604 Y-23.698 E.04812
G1 X9.296 Y-24.279 E.04812
G1 X10.008 Y-24.835 E.04812
